src/assets/duotone/StarSlash.svg

<svg width="24" height="24" viewBox="0 0 24 24"  xmlns="http://www.w3.org/2000/svg">
<path opacity="0.4" d="M18.7002 14.4602C18.3502 14.8102 18.1502 15.5202 18.2602 16.0002L18.9502 19.0102C19.2402 20.2602 19.0602 21.2002 18.4402 21.6502C18.1902 21.8302 17.8902 21.9202 17.5402 21.9202C17.0302 21.9202 16.4302 21.7302 15.7702 21.3402L12.8402 19.6002C12.3902 19.3302 11.6102 19.3302 11.1602 19.6002L8.2302 21.3402C7.1202 21.9902 6.1702 22.1002 5.5602 21.6502C5.5202 21.6202 5.4802 21.5902 5.4502 21.5502L18.8002 8.2002L19.9702 8.4002C21.0302 8.5802 21.7402 9.0602 21.9702 9.7602C22.1902 10.4602 21.8902 11.2702 21.1302 12.0302L18.7002 14.4602Z" />
<path opacity="0.4" d="M5.73986 16C5.84986 15.52 5.64986 14.81 5.29986 14.46L2.86986 12.03C2.10986 11.27 1.80986 10.46 2.02986 9.76C2.25986 9.06 2.96986 8.58 4.02986 8.4L7.14986 7.88C7.59986 7.8 8.14986 7.4 8.35986 6.99L10.0799 3.54C10.5799 2.55 11.2599 2 11.9999 2C12.7399 2 13.4199 2.55 13.9199 3.54L15.6399 6.99C15.7699 7.25 16.0399 7.5 16.3299 7.67L5.06986 18.93L5.73986 16Z" />
<path d="M21.7699 2.22988C21.4699 1.92988 20.9799 1.92988 20.6799 2.22988L2.22988 20.6899C1.92988 20.9899 1.92988 21.4799 2.22988 21.7799C2.37988 21.9199 2.56988 21.9999 2.76988 21.9999C2.96988 21.9999 3.15988 21.9199 3.30988 21.7699L21.7699 3.30988C22.0799 3.00988 22.0799 2.52988 21.7699 2.22988Z" />
</svg>

<?xml version="1.0" encoding="UTF-8"?>
<svg width="24" height="24" viewBox="0 0 24 24" xmlns="http://www.w3.org/2000/svg">
 <path d="m18.7 14.46c-0.35 0.35-0.55 1.06-0.44 1.54l0.69 3.01c0.29 1.25 0.11 2.19-0.51 2.64-0.25 0.18-0.55 0.27-0.9 0.27-0.51 0-1.11-0.19-1.77-0.58l-2.93-1.74c-0.45-0.27-1.23-0.27-1.68 0l-2.93 1.74c-1.11 0.65-2.06 0.76-2.67 0.31-0.04-0.03-0.08-0.06-0.11-0.1l13.35-13.35 1.17 0.2c1.06 0.18 1.77 0.66 2 1.36 0.22 0.7-0.08 1.51-0.84 2.27l-2.43 2.43z" opacity=".4"/>
 <path d="m5.7399 16c0.11-0.48-0.09-1.19-0.44-1.54l-2.43-2.43c-0.76-0.76-1.06-1.57-0.84-2.27 0.23-0.7 0.94-1.18 2-1.36l3.12-0.52c0.45-0.08 1-0.48 1.21-0.89l1.72-3.45c0.5-0.99 1.18-1.54 1.92-1.54s1.42 0.55 1.92 1.54l1.72 3.45c0.13 0.26 0.4 0.51 0.69 0.68l-11.26 11.26 0.67-2.93z" opacity=".4"/>
 <path d="m21.77 2.2299c-0.3-0.3-0.79-0.3-1.09 0l-18.45 18.46c-0.3 0.3-0.3 0.79 0 1.09 0.15 0.14 0.34 0.22 0.54 0.22s0.39-0.08 0.54-0.23l18.46-18.46c0.31-0.3 0.31-0.78 0-1.08z"/>
</svg>
